X: 15
M:6/8
L:1/8
K:G
EAA AGA|BAB G2 A|Bee dBG|BAA A2:|
|:d|gfg edB|BAA A2 B|GBG dBA|BAB G2 d|
gfg edB|BAB G2 A|Bee dBG|BAA A2:||

